X: 20091
Q: "Largo"
M: 6/8
L: 1/8
K: Am
EAA ({BA^G}A>B)c | {c}B>AG Bd2 | e<ee d>eg | (e>dc/B/ A3) |\
EAA A>Bc | {c}B>AG Bc2 | eee deg | (e>dc/B/ A2) :|
|: (B/A/) |\
(d>e^f) (g>ab) | {c}B>AG Bd2 | ee (d/B/) deg | (e>dc/B/ A2) :|


